SVG_Azure_All/Device Update for IoT Hub.svg

<?xml version="1.0" encoding="UTF-8" standalone="no"?>
<!-- Generated by Microsoft Visio, SVG Export Device Update for IoT Hub.svg Page-1 -->

<svg
   xmlns:dc="http://purl.org/dc/elements/1.1/"
   xmlns:cc="http://creativecommons.org/ns#"
   xmlns:rdf="http://www.w3.org/1999/02/22-rdf-syntax-ns#"
   xmlns:svg="http://www.w3.org/2000/svg"
   xmlns="http://www.w3.org/2000/svg"
   xmlns:sodipodi="http://sodipodi.sourceforge.net/DTD/sodipodi-0.dtd"
   xmlns:inkscape="http://www.inkscape.org/namespaces/inkscape"
   width="0.70447916in"
   height="0.78889692in"
   viewBox="0 0 50.722448 56.800945"
   xml:space="preserve"
   class="st5"
   version="1.1"
   id="svg43"
   sodipodi:docname="Device Update for IoT Hub.svg"
   style="font-size:12px;overflow:visible;color-interpolation-filters:sRGB;fill:none;fill-rule:evenodd;stroke-linecap:square;stroke-miterlimit:3"
   inkscape:version="0.92.5 (2060ec1f9f, 2020-04-08)"><metadata
   id="metadata47"><rdf:RDF><cc:Work
       rdf:about=""><dc:format>image/svg+xml</dc:format><dc:type
         rdf:resource="http://purl.org/dc/dcmitype/StillImage" /></cc:Work></rdf:RDF></metadata><sodipodi:namedview
   pagecolor="#ffffff"
   bordercolor="#666666"
   borderopacity="1"
   objecttolerance="10"
   gridtolerance="10"
   guidetolerance="10"
   inkscape:pageopacity="0"
   inkscape:pageshadow="2"
   inkscape:window-width="640"
   inkscape:window-height="480"
   id="namedview45"
   showgrid="false"
   inkscape:zoom="1.431469"
   inkscape:cx="33.815479"
   inkscape:cy="37.154971"
   inkscape:window-x="0"
   inkscape:window-y="0"
   inkscape:window-maximized="0"
   inkscape:current-layer="svg43" />
	<style
   type="text/css"
   id="style2">
	<![CDATA[
		.st1 {fill:url(#grad0-6);stroke:none;stroke-linecap:butt;stroke-width:32.8856}
		.st2 {fill:#ffffff;fill-opacity:0.48;stroke:none;stroke-linecap:butt;stroke-width:32.8856}
		.st3 {fill:#ffffff;fill-opacity:0.8;stroke:none;stroke-linecap:butt;stroke-width:32.8856}
		.st4 {fill:#0078d4;stroke:none;stroke-linecap:butt;stroke-width:32.8856}
		.st5 {fill:none;fill-rule:evenodd;font-size:12px;overflow:visible;stroke-linecap:square;stroke-miterlimit:3}
	]]>
	</style>

	<defs
   id="Patterns_And_Gradients">
		<linearGradient
   id="grad0-6"
   x1="-0.00010907573"
   y1="86.65738"
   x2="38.053697"
   y2="86.65738"
   gradientTransform="scale(1.0085822,0.99149086)"
   gradientUnits="userSpaceOnUse">
			<stop
   offset="0"
   stop-color="#50e6ff"
   stop-opacity="1"
   id="stop4" />
			<stop
   offset="0.95"
   stop-color="#32bedd"
   stop-opacity="1"
   id="stop6" />
		</linearGradient>
	</defs>
	<g
   id="g41"
   transform="translate(-32.885162,-32.890464)">
		<title
   id="title10">Page-1</title>
		<g
   id="group5661-1"
   transform="translate(34.1519,-34.0157)">
			<title
   id="title12">Device Update for IoT Hub</title>
			<g
   id="group5662-2">
				<title
   id="title14">g12</title>
				<g
   id="shape5663-3"
   transform="translate(4.91206,-9.40832)">
					<title
   id="title16">path2</title>
					<path
   d="m 38.38,104.78 v 0.49 a 19.2017,18.864 0 0 1 -19.2,18.38 h -0.2 l -2.75,-4.59 a 2.79817,2.74896 -180 0 0 -2.44,-1.38 2.82709,2.77736 -180 0 0 -2.64,1.75 l -0.84,2.08 C 9.99,121.34 9.67,121.16 9.35,120.98 L 9.06,120.81 A 5.52246,5.42533 0 0 1 8.67,120.57 L 8.3,120.32 8.05,120.14 7.79,119.96 7.64,119.84 7.21,119.53 A 12.33,12.1131 0 0 1 6.77,119.17 L 6.4,118.86 A 0.202394,0.198834 0 0 1 6.3293228,118.77794 14.0519,13.8048 0 0 1 5.62,118.11 L 5.25,117.74 A 0.26022,0.255644 0 0 1 5.1985984,117.6895 11.5654,11.3619 0 0 1 4.56,116.97 c -0.12,-0.13 -0.23,-0.26 -0.33,-0.39 -0.09,-0.14 -0.22,-0.27 -0.32,-0.41 -0.1,-0.14 -0.21,-0.28 -0.32,-0.41 -0.11,-0.14 -0.2,-0.29 -0.32,-0.44 -0.12,-0.14 -0.19,-0.28 -0.29,-0.43 a 2.69537,2.64796 0 0 1 -0.16,-0.26 7.92869,7.78924 0 0 1 -0.5,-0.86 c -0.08,-0.13 -0.15,-0.26 -0.23,-0.4 A 12.8375,12.6118 0 0 1 1.7,112.56 c -0.06,-0.14 -0.13,-0.29 -0.2,-0.44 -0.06,-0.15 -0.14,-0.32 -0.2,-0.48 -0.06,-0.17 -0.13,-0.32 -0.18,-0.48 -0.05,-0.17 -0.1,-0.25 -0.14,-0.39 -0.04,-0.14 -0.07,-0.2 -0.1,-0.3 -0.03,-0.1 -0.07,-0.22 -0.1,-0.33 A 10.6915,10.5035 0 0 1 0.63,109.62 L 0.49,109.11 A 15.806,15.528 0 0 1 0.38,108.58 19.1599,18.8229 0 0 1 0.02,105.92 C 0.02,105.77 0,105.61 0,105.46 v -0.68 a 19.131,18.7945 0 0 1 0.23,-2.97 c 0.03,-0.23 0.08,-0.47 0.12,-0.71 0.05,-0.24 0.09,-0.39 0.13,-0.58 a 2.07213,2.03568 0 0 1 0.07,-0.26 c 0.04,-0.2 0.09,-0.39 0.15,-0.59 V 99.62 C 0.76,99.41 0.83,99.21 0.89,99 V 98.97 A 19.2049,18.8671 0 0 1 19.12,85.92 l 2.67,4.45 a 2.83672,2.78683 -180 0 0 5.08,-0.38 l 0.85,-2.1 a 15.6807,15.4049 0 0 1 1.44,0.78 l 0.15,0.09 c 0.16,0.1 0.32,0.2 0.48,0.31 0.29,0.18 0.57,0.37 0.84,0.58 0.36,0.25 0.72,0.53 1.05,0.83 0.17,0.14 0.32,0.28 0.5,0.43 a 19.0218,18.6872 0 0 1 6.02,11.32 19.8924,19.5425 0 0 1 0.16,1.79 v 0.48 a 1.61272,1.58436 0 0 1 0.02,0.28 z"
   class="st1"
   id="path18"
   inkscape:connector-curvature="0"
   style="fill:url(#grad0-6);stroke:none;stroke-width:32.88560104;stroke-linecap:butt" />
				</g>
				<g
   id="group5664-7"
   transform="translate(9.98497,-16.9791)">
					<title
   id="title21">g8</title>
					<g
   id="shape5665-8"
   transform="translate(2.24539,-1.76807)">
						<title
   id="title23">path4</title>
						<path
   d="m 21.39,122.91 -5.98,-10.28 -0.6,0.33 0.49,-0.35 -6.77,-9.46 -1.24,0.88 6,8.38 -13.29,1.08 0.13,1.51 13.16,-1.07 -4.37,7.13 1.32,0.77 4.48,-7.34 5.34,9.16 z"
   class="st2"
   id="path25"
   inkscape:connector-curvature="0"
   style="fill:#ffffff;fill-opacity:0.47999998;stroke:none;stroke-width:32.88560104;stroke-linecap:butt" />
					</g>
					<g
   id="shape5666-10">
						<title
   id="title28">path6</title>
						<path
   d="m 23.02,118.97 h -0.01 a 2.82387,2.77421 -180 0 0 -0.61,0.06 2.74998,2.70162 -180 0 0 -2.18,2.61 v 0.05 a 2.78211,2.73318 -180 1 0 2.8,-2.72 z m -9.35,-0.85 a 2.33877,2.29764 -180 0 0 -1.39,-0.65 1.46816,1.44233 -180 0 0 -0.27,-0.02 H 12 a 2.3966,2.35445 -180 0 0 -2.41,2.33 v 0.02 a 2.40945,2.36707 -180 1 0 4.08,-1.68 z m -9.25,-6.58 a 2.38696,2.34498 -180 1 0 0.28,1.12 2.38375,2.34182 -180 0 0 -0.28,-1.12 z m 5.94,-12.51 h -0.09 a 2.9826091,2.9301482 -180 0 0 0.06,5.86 3.06482,3.01091 -180 0 0 0.96,-0.16 2.99735,2.94464 -180 0 0 2.02,-2.75 2.97808,2.9257 -180 0 0 -2.95,-2.95 z m 6.7,8.88 a 3.5949,3.53167 -180 0 0 -1.41,0.27 3.60775,3.54429 -180 0 0 -2.12,2.62 3.1612,3.1056 -180 0 0 -0.06,0.54 v 0.08 a 3.63345,3.56954 -180 0 0 1.01,2.45 3.55313,3.49064 -180 0 0 1.28,0.84 3.61417,3.55061 -180 0 0 1.31,0.25 3.68485,3.62004 -180 0 0 1.12,-0.18 3.59169,3.52851 -180 0 0 -1.12,-6.88 z"
   class="st3"
   id="path30"
   inkscape:connector-curvature="0"
   style="fill:#ffffff;fill-opacity:0.8;stroke:none;stroke-width:32.88560104;stroke-linecap:butt" />
					</g>
				</g>
				<g
   id="shape5667-12">
					<title
   id="title34">path10</title>
					<path
   d="m 48.19,103.17 a 1.48743,1.46127 0 0 1 -1.96,0.91 L 44.49,103.4 A 1.48101,1.45496 0 0 1 43.65,101.59 20.5863,20.2242 -180 0 0 31.9,76.68 l -0.5,1.24 -0.88,2.17 a 1.48101,1.45496 0 0 1 -2.65,0.19 l -2.23,-3.71 -2.87,-4.78 a 1.48101,1.45496 0 0 1 0.88,-2.14 l 9.66,-2.69 a 1.48422,1.45812 0 0 1 1.78,1.94 l -1.39,3.4 a 25.4084,24.9615 0 0 1 14.49,30.87 z m -23.99,17.79 -9.66,2.69 a 1.4778,1.4518 0 0 1 -1.78,-1.94 l 1.39,-3.41 A 25.402,24.9552 0 0 1 0,87.57 1.49065,1.46443 0 0 1 1.96,86.66 l 1.7,0.67 a 1.50028,1.4739 0 0 1 0.88,1.81 20.5895,20.2274 -180 0 0 11.4,24.79 l 0.51,-1.24 0.87,-2.15 a 1.48101,1.45496 0 0 1 2.66,-0.2 l 2.29,3.83 2.8,4.67 a 1.48101,1.45496 0 0 1 -0.87,2.12 z"
   class="st4"
   id="path36"
   inkscape:connector-curvature="0"
   style="fill:#0078d4;stroke:none;stroke-width:32.88560104;stroke-linecap:butt" />
				</g>
			</g>
		</g>
	</g>
</svg>

<?xml version="1.0" encoding="UTF-8" standalone="no"?>
<!DOCTYPE svg PUBLIC "-//W3C//DTD SVG 1.1//EN" "http://www.w3.org/Graphics/SVG/1.1/DTD/svg11.dtd">
<!-- Generated by Microsoft Visio, SVG Export Device Update for IoT Hub.svg Page-1 -->
<svg xmlns="http://www.w3.org/2000/svg" xmlns:xlink="http://www.w3.org/1999/xlink" xmlns:ev="http://www.w3.org/2001/xml-events"
		width="1.61796in" height="1.71735in" viewBox="0 0 116.493 123.65" xml:space="preserve" color-interpolation-filters="sRGB"
		class="st5">
	<style type="text/css">
	<![CDATA[
		.st1 {fill:url(#grad0-6);stroke:none;stroke-linecap:butt;stroke-width:32.8856}
		.st2 {fill:#ffffff;fill-opacity:0.48;stroke:none;stroke-linecap:butt;stroke-width:32.8856}
		.st3 {fill:#ffffff;fill-opacity:0.8;stroke:none;stroke-linecap:butt;stroke-width:32.8856}
		.st4 {fill:#0078d4;stroke:none;stroke-linecap:butt;stroke-width:32.8856}
		.st5 {fill:none;fill-rule:evenodd;font-size:12px;overflow:visible;stroke-linecap:square;stroke-miterlimit:3}
	]]>
	</style>

	<defs id="Patterns_And_Gradients">
		<linearGradient id="grad0-6" x1="0" y1="0" x2="1" y2="0" gradientTransform="rotate(90 0.5 0.5)">
			<stop offset="0" stop-color="#50e6ff" stop-opacity="1"/>
			<stop offset="0.95" stop-color="#32bedd" stop-opacity="1"/>
		</linearGradient>
	</defs>
	<g>
		<title>Page-1</title>
		<g id="group5542-1" transform="translate(34.1519,-34.0157)">
			<title>Device Update for IoT Hub</title>
			<g id="group5543-2">
				<title>g12</title>
				<g id="shape5544-3" transform="translate(4.91206,-9.40832)">
					<title>path2</title>
					<path d="M38.38 104.78 L38.38 105.27 A19.2017 18.864 0 0 1 19.18 123.65 L18.98 123.65 L16.23 119.06 A2.79817
								 2.74896 -180 0 0 13.79 117.68 A2.82709 2.77736 -180 0 0 11.15 119.43 L10.31 121.51 C9.99 121.34
								 9.67 121.16 9.35 120.98 L9.06 120.81 A5.52246 5.42533 0 0 1 8.67 120.57 L8.3 120.32 L8.05 120.14
								 L7.79 119.96 L7.64 119.84 L7.21 119.53 A12.33 12.1131 0 0 1 6.77 119.17 L6.4 118.86 a0.202394 0.198834
								 0 0 1 -0.0706772 -0.0820584 A14.0519 13.8048 0 0 1 5.62 118.11 L5.25 117.74 a0.26022 0.255644 0
								 0 1 -0.0514016 -0.0504975 A11.5654 11.3619 0 0 1 4.56 116.97 C4.44 116.84 4.33 116.71 4.23 116.58
								 C4.14 116.44 4.01 116.31 3.91 116.17 C3.81 116.03 3.7 115.89 3.59 115.76 C3.48 115.62 3.39 115.47
								 3.27 115.32 C3.15 115.18 3.08 115.04 2.98 114.89 A2.69537 2.64796 0 0 1 2.82 114.63 A7.92869 7.78924
								 0 0 1 2.32 113.77 C2.24 113.64 2.17 113.51 2.09 113.37 A12.8375 12.6118 0 0 1 1.7 112.56 C1.64 112.42
								 1.57 112.27 1.5 112.12 C1.44 111.97 1.36 111.8 1.3 111.64 C1.24 111.47 1.17 111.32 1.12 111.16 C1.07
								 110.99 1.02 110.91 0.98 110.77 C0.94 110.63 0.91 110.57 0.88 110.47 C0.85 110.37 0.81 110.25 0.78
								 110.14 A10.6915 10.5035 0 0 1 0.63 109.62 L0.49 109.11 A15.806 15.528 0 0 1 0.38 108.58 A19.1599
								 18.8229 0 0 1 0.02 105.92 C0.02 105.77 0 105.61 0 105.46 L0 104.78 A19.131 18.7945 0 0 1 0.23 101.81
								 C0.26 101.58 0.31 101.34 0.35 101.1 C0.4 100.86 0.44 100.71 0.48 100.52 A2.07213 2.03568 0 0 1 0.55
								 100.26 C0.59 100.06 0.64 99.87 0.7 99.67 L0.7 99.62 C0.76 99.41 0.83 99.21 0.89 99 L0.89 98.97 A19.2049
								 18.8671 0 0 1 19.12 85.92 L21.79 90.37 A2.83672 2.78683 -180 0 0 26.87 89.99 L27.72 87.89 A15.6807
								 15.4049 0 0 1 29.16 88.67 L29.31 88.76 C29.47 88.86 29.63 88.96 29.79 89.07 C30.08 89.25 30.36 89.44
								 30.63 89.65 C30.99 89.9 31.35 90.18 31.68 90.48 C31.85 90.62 32 90.76 32.18 90.91 A19.0218 18.6872
								 0 0 1 38.2 102.23 A19.8924 19.5425 0 0 1 38.36 104.02 L38.36 104.5 A1.61272 1.58436 0 0 1 38.38
								 104.78 Z" class="st1"/>
				</g>
				<g id="group5545-7" transform="translate(9.98497,-16.9791)">
					<title>g8</title>
					<g id="shape5546-8" transform="translate(2.24539,-1.76807)">
						<title>path4</title>
						<path d="M21.39 122.91 L15.41 112.63 L14.81 112.96 L15.3 112.61 L8.53 103.15 L7.29 104.03 L13.29 112.41 L0
									 113.49 L0.13 115 L13.29 113.93 L8.92 121.06 L10.24 121.83 L14.72 114.49 L20.06 123.65 L21.39
									 122.91 Z" class="st2"/>
					</g>
					<g id="shape5547-10">
						<title>path6</title>
						<path d="M23.02 118.97 L23.01 118.97 A2.82387 2.77421 -180 0 0 22.4 119.03 A2.74998 2.70162 -180 0 0 20.22
									 121.64 L20.22 121.69 A2.78211 2.73318 -180 1 0 23.02 118.97 ZM13.67 118.12 A2.33877 2.29764
									 -180 0 0 12.28 117.47 A1.46816 1.44233 -180 0 0 12.01 117.45 L12 117.45 A2.3966 2.35445 -180
									 0 0 9.59 119.78 L9.59 119.8 A2.40945 2.36707 -180 1 0 13.67 118.12 ZM4.42 111.54 A2.38696 2.34498
									 -180 1 0 4.7 112.66 A2.38375 2.34182 -180 0 0 4.42 111.54 ZM10.36 99.03 L10.27 99.03 A2.98142
									 2.92898 -180 0 0 10.33 104.89 A3.06482 3.01091 -180 0 0 11.29 104.73 A2.99735 2.94464 -180 0
									 0 13.31 101.98 A2.97808 2.9257 -180 0 0 10.36 99.03 ZM17.06 107.91 A3.5949 3.53167 -180 0 0
									 15.65 108.18 A3.60775 3.54429 -180 0 0 13.53 110.8 A3.1612 3.1056 -180 0 0 13.47 111.34 L13.47
									 111.42 A3.63345 3.56954 -180 0 0 14.48 113.87 A3.55313 3.49064 -180 0 0 15.76 114.71 A3.61417
									 3.55061 -180 0 0 17.07 114.96 A3.68485 3.62004 -180 0 0 18.19 114.78 A3.59169 3.52851 -180 0
									 0 17.07 107.9 L17.06 107.91 Z" class="st3"/>
					</g>
				</g>
				<g id="shape5548-12">
					<title>path10</title>
					<path d="M48.19 103.17 A1.48743 1.46127 0 0 1 46.23 104.08 L44.49 103.4 A1.48101 1.45496 0 0 1 43.65 101.59 A20.5863
								 20.2242 -180 0 0 31.9 76.68 L31.4 77.92 L30.52 80.09 A1.48101 1.45496 0 0 1 27.87 80.28 L25.64 76.57
								 L22.77 71.79 A1.48101 1.45496 0 0 1 23.65 69.65 L33.31 66.96 A1.48422 1.45812 0 0 1 35.09 68.9 L33.7
								 72.3 A25.4084 24.9615 0 0 1 48.19 103.17 ZM24.2 120.96 L14.54 123.65 A1.4778 1.4518 0 0 1 12.76
								 121.71 L14.15 118.3 A25.402 24.9552 0 0 1 0 87.57 A1.49065 1.46443 0 0 1 1.96 86.66 L3.66 87.33
								 A1.50028 1.4739 0 0 1 4.54 89.14 A20.5895 20.2274 -180 0 0 15.94 113.93 L16.45 112.69 L17.32 110.54
								 A1.48101 1.45496 0 0 1 19.98 110.34 L22.27 114.17 L25.07 118.84 A1.48101 1.45496 0 0 1 24.2 120.96
								 Z" class="st4"/>
				</g>
			</g>
		</g>
	</g>
</svg>
